X: 052
T: If a Body loves a Body
%R: march, reel
Z: 2018 John Chambers <jc:trillian.mit.edu>
B: Bland and Weller "Country Dances for the Year 1798" p.5 #2
N: The extra repeats are probably wrong for the dance.
M: 2/4
L: 1/8
K: F
% - - - - - - - - - - - - - - - - - - - - - - - - -
c |\
fccc | dBBd | cAGF | A2GA |\
BdcB | Acfa |[1 gbdg | fedc :|\
[2 gbde | f3 :|
c |\
ffff | eccc | dfed | c3c |\
dfdB | cAFA | BGAF | A2GG |]
AFFF | cAAA | fefg | f2eg |\
afge | fdcA | GBAG | F3 |]
% - - - - - - - - - - - - - - - - - - - - - - - - -
%%begintext align
%%  Set & hands across .| back again .|. Cross over
%% one Cu: :|. and right and left :|:
%%endtext
% - - - - - - - - - - - - - - - - - - - - - - - - -
